X: 43417
T: Y Derwydd
R: jig
M: 6/8
K: Dmajor
A|FGA {B}AFA|BGB AFD|Bcd efg|efd cBA|
~F3 ~A3|BGB AzA|Bcd efg|ABc d3|
FzA AFA|BGB AFD|Bcd efg|efd cBA|
FDF AFA|BGB A3|Bcd efg|ABc d2a|
~f3 afa|~g3 efg|fdf fzf|EFD cBA|
AFA AFA|~G3 EzG|FED cde|dAF D3|
faa faa|geg {a}geg|~f3 dzf|efd cBA|
~F3 AFA|~G3 EFG|fed cde|dAF D3|

